X:40
T:Norwegian Wood
S:Jim Coon to CoMandoList TOW
M:12/8
L:1/8
Q:3/8=110
K:E
| B3 cBA G3 FAG | E3 "Bm7"=DA"A"C B,6 | "E"B3 cBA G3 FAG |E3 "Bm7"=DA"A"C B,4zE | \
 "Em"BBB BAA A=GG GA3/2G/ | "A"A8z3B, | "Em"BBB BAA A=GG GA3/2G/ | "A"A8
z4 |: "E"[e/B/][e/B/][e/B/][e/B/][eB] [e/c/]B/4c/4[eB][eA] [B/G/][B/G/][
B/G/][B3/2G3/2] FAG | \
 "E"[B/E/][B/E/][B/E/][B/E/][BE] "Bm7"=DA"A"C "E"[E/B,/][E/B,/]\
[E/B,/][E/B,/][E/B,/][E/B,/] [E3B,3] | \
 "E"B/e/e/B/e/e/ c/e/B/e/A/e/ G/e/B/G/e/B/ FAG |\
"E"[B/E/][B/E/][B/E/][BE/][BE] "Bm7"=DA"A"C "E"[E/B,/][E/B,/]\
[E/B,/][E/B,/][E/B,/][E/B,/] [E3B,3] | \
 "Em"[eB][eB][eB] [eB][eA][eA] [eAA][B=G][BG] \
[BG][e3/2A3/2]G/ | "A"[e/A/=G/][e/A/A/][e/A/][e/A/][e/A/][e/A/] [e/A/G/][e/A/A/][e/A/][e/A/][e/A/]
[e/A/] [e'4a4]zB, | \
 "Em"[eB][eB][eB] [eB][eAA][eAA] [eAA][B=G][BG]\
 [BG][e3/2A3/2]G/ | "A"[e/A/=G/][e/A/A/][e/A/]\
[e/A/][e/A/][e/A/] [e/A/G/][e/A/A/][e/A/][e/A/][e/A/]\
[e/A/] [e'6a6] :| \
W:Created with TablEdit http://www.tabledit.com/
